X:1
T:Phuket, 86.86.66.86
T:Phuket, 86.86.66.86
T:George Coles Stebbins, 1891
T:Public Domain Courtesy of the Cyber Hymnal™
C:George Coles Stebbins, 1891
Z:Public Domain
Z:Courtesy of the Cyber Hymnal™
%%score ( 1 2 ) ( 3 4 )
L:1/8
Q:1/4=103
M:4/4
K:F
V:1 treble 
V:2 treble 
V:3 bass 
V:4 bass 
V:1
 [CF]2 | [FA]3 [CG] [CF][CG] [FA]>[GB] | [Ac]6 [Fc]2 | [Fd]3 [Fc] (cB) [FA]2 | [EG]6 F2 | %5
 [FA]3 [CG] [CF][CG] [FA]>[FB] | [Fc]6 [Fd]2 | [Fc]3 F [FA]2 [EG]2 | F6 F2 | %9
 [Fd]3 [Fd] [Fd]2 [Fd]2 | (d2 c4) [Fc]2 | [Fc]3 [FA] [CG]2 [DF]2 | (G2 c4) [EB]2 | %13
 [FA]3 [GB] [Ac][FA][FG]F | (B2 c2 d2) [Fdf]2 | [Fc]3 F [FA]2 [EG]2 | F6 |] %17
V:2
 x2 | x8 | x8 | x4 E2 x2 | x6 F2 | x8 | x8 | x3 F x4 | F6 F2 | x8 | F6 x2 | x8 | E6 x2 | x7 F | %14
 F6 x2 | x3 F x4 | F6 |] %17
V:3
 [F,A,]2 | [F,C]3 [F,B,] [F,A,][F,B,] [F,C]>[F,F] | [F,F]6 [A,C]2 | B,3 [A,C] [G,C]2 [F,C]2 | %4
 [C,C]6 [F,A,]2 | [F,C]3 [F,B,] [F,A,][F,B,] [F,C]>[F,G,] | [F,A,]6 [B,,B,]2 | %7
 [C,A,]3 [D,A,] [C,C]2 [C,B,]2 | [F,A,]6 [F,A,]2 | [B,,B,]3 [B,,B,] B,2 B,2 | (B,2 A,4) [F,A,]2 | %11
 [F,A,]3 [F,C] [E,C]2 [D,A,]2 | (C2 G,4) [C,C]2 | [F,C]3 [F,C] [F,F][F,C][F,B,][F,A,] | %14
 ([D,B,]2 [C,A,]2 [B,,B,]2) [=B,,^G,]2 | [C,A,]3 [D,A,] [C,C]2 [C,B,]2 | [F,A,]6 |] %17
V:4
 x2 | x8 | x8 | B,3 x5 | x8 | x8 | x8 | x8 | x8 | x4 (B,,C,) (D,E,) | F,6 x2 | x8 | C,6 x2 | x8 | %14
 x8 | x8 | x6 |] %17

